X:1000
T: Miss Cox
T: In\'ion u\'i Choiligh
S: B.Breathnach:"Ceol Rince na hEireann" IV/128
Z: B.Black
L: 1/8
M: 4/4
R: reel
K: G
G2 BG EGDF|GABd gedB|GABG EG D2|BGAF GFED|
G2 BG EGDF|GABd gedB|G2 BG EGDG|(3BAG AF GFED :|
dG G2 dGBG|d2 BG AGED|d2 BG dGBG|Bdef gfge|
d2 BG dGBG|(3ded BG AGEG|DEGA Bdge|dBAB G3 z :|
